public/library/dtcpay-icon-light.svg

<svg xmlns="http://www.w3.org/2000/svg" width="150" height="36" viewBox="0 0 150 36" fill="none" style="&#10;    /* background-color: green; */&#10;">
<path d="M56.2087 2.82764H59.1852V28.1855H56.6161L56.2087 25.2153C54.6666 27.3367 52.5407 28.3988 49.864 28.3988C47.1872 28.3988 45.0972 27.5499 43.449 25.8694C41.8008 24.1889 40.9688 21.8915 40.9688 18.9556C40.9688 16.0197 41.8022 13.8797 43.4848 12.1305C45.1503 10.3799 47.2776 9.49526 49.864 9.49526C52.8592 9.49526 55.0209 10.6805 56.2087 12.5371V2.82764ZM54.5605 23.8712C55.6765 22.6158 56.2446 21.0069 56.2446 19.0257C56.2446 17.0446 55.6779 15.347 54.5605 14.0572C53.4258 12.7847 51.9555 12.1477 50.148 12.1477C48.3406 12.1477 46.8344 12.7847 45.7183 14.0401C44.5836 15.2954 44.017 16.9401 44.017 18.9556C44.017 20.9711 44.5836 22.6158 45.7183 23.8712C46.8344 25.1265 48.3233 25.7635 50.148 25.7635C51.9727 25.7635 53.4258 25.1265 54.5605 23.8712Z" fill="#01B1E9"/>
<path d="M64.3339 12.4297H60.9844V9.72431H64.3339V4.54395H67.2932V9.72574H72.0959V12.4311H67.2932V23.3415C67.2932 24.8975 67.8598 25.4629 69.4378 25.4629H72.3799V28.1855H69.1552C65.6637 28.1855 64.3353 26.6997 64.3353 23.3759V12.4297H64.3339Z" fill="#01B1E9"/>
<path d="M75.9731 25.8521C74.3421 24.1544 73.5273 21.8727 73.5273 18.9913C73.5273 16.1098 74.3608 13.881 76.0434 12.1304C77.7089 10.3797 79.8893 9.49512 82.5646 9.49512C84.7981 9.49512 86.6227 10.0791 88.04 11.2458C89.4401 12.4124 90.3438 14.0213 90.734 16.0912H87.5968C87.0301 13.6162 85.2227 12.1476 82.5287 12.1476C80.7571 12.1476 79.3212 12.7846 78.2224 14.0571C77.1236 15.3296 76.5742 16.9744 76.5742 18.9913C76.5742 21.0081 77.1236 22.6343 78.2224 23.8896C79.3212 25.145 80.7571 25.7634 82.5287 25.7634C85.151 25.7634 86.9771 24.2962 87.5609 21.8913H90.7325C90.361 23.9068 89.4573 25.4986 88.0214 26.648C86.5682 27.8146 84.7249 28.3986 82.4929 28.3986C79.7817 28.3986 77.6013 27.5498 75.9717 25.8521H75.9731Z" fill="#01B1E9"/>
<path d="M109.441 12.023C111.089 13.7035 111.921 16.0196 111.921 18.9554C111.921 21.8913 111.088 24.0127 109.422 25.7633C107.738 27.514 105.612 28.3986 103.024 28.3986C100.029 28.3986 97.8674 27.2134 96.6797 25.3568V35.437H93.7031V9.72411H96.2723L96.6797 12.6772C98.2217 10.5558 100.348 9.49365 103.024 9.49365C105.701 9.49365 107.791 10.3425 109.439 12.023H109.441ZM107.19 23.871C108.306 22.6156 108.874 20.9709 108.874 18.9554C108.874 16.94 108.308 15.2953 107.19 14.0399C106.055 12.7845 104.568 12.1475 102.742 12.1475C100.916 12.1475 99.464 12.7659 98.3466 14.0213C97.2119 15.2766 96.6453 16.9042 96.6453 18.8839C96.6453 20.8635 97.2119 22.5626 98.3466 23.8352C99.4626 25.1263 100.934 25.7619 102.742 25.7619C104.549 25.7619 106.055 25.1249 107.19 23.8695V23.871Z" fill="#000"/>
<path d="M132.348 25.4628V28.1854H130.7C128.343 28.1854 127.422 27.2134 127.369 25.3211C125.933 27.3723 123.86 28.3986 121.166 28.3986C119.111 28.3986 117.462 27.9205 116.221 26.9486C114.963 25.9767 114.344 24.6669 114.344 23.005C114.344 19.309 116.949 17.2578 121.786 17.2578H127.227V15.9852C127.227 13.5804 125.526 12.1476 122.619 12.1476C120.05 12.1476 118.243 13.3671 117.888 15.2595H114.929C115.16 13.4387 115.958 12.023 117.339 11.0153C118.722 10.0076 120.529 9.49512 122.761 9.49512C127.511 9.49512 130.203 11.8641 130.203 16.1613V24.2432C130.203 25.1808 130.522 25.4628 131.391 25.4628H132.348ZM127.227 19.7513H121.485C118.738 19.7513 117.356 20.7777 117.356 22.8289C117.356 24.6497 118.951 25.8707 121.378 25.8707C123.203 25.8707 124.622 25.3941 125.668 24.4379C126.713 23.4817 127.227 22.2277 127.227 20.6531V19.7513Z" fill="#000"/>
<path d="M139.003 28.2913L131.773 9.72412H134.928L140.634 24.4536L146.146 9.72412H149.3L140.776 31.2973C140.439 32.1289 140.174 32.7831 139.943 33.224C139.712 33.6663 139.429 34.09 139.092 34.4622C138.401 35.2223 137.603 35.4341 136.309 35.4341H132.765V32.7115H135.406C136.54 32.7115 137.107 32.4467 137.461 31.8985C137.62 31.6337 137.833 31.1727 138.1 30.5372L139.003 28.2913Z" fill="#000"/>
<path d="M30.3766 24.5308H22.9531V12.9791L30.3766 10.1392V24.5308Z" fill="#01B1E9"/>
<path d="M10.5951 32.8535L0 26.7499V9.25061L10.5951 3.14697V32.8535Z" fill="#01B1E9"/>
<path d="M15.1854 35.5001L14.9961 35.3899V27.3667H29.3022L15.1854 35.5001Z" fill="#01B1E9"/>
<path d="M15.1895 0.5L15.0002 0.608789L14.9844 8.28271H28.698L15.1895 0.5Z" fill="#01B1E9"/>
</svg>

<svg xmlns="http://www.w3.org/2000/svg" width="150" height="36" fill="none" viewBox="0 0 150 36"><path fill="#01b1e9" d="M56.209 2.828h2.976v25.358h-2.569l-.407-2.97c-1.542 2.12-3.668 3.183-6.345 3.183s-4.767-.85-6.415-2.53-2.48-3.977-2.48-6.913.833-5.076 2.516-6.825c1.665-1.751 3.793-2.636 6.379-2.636 2.995 0 5.157 1.186 6.345 3.042zM54.56 23.87c1.116-1.255 1.685-2.864 1.685-4.845s-.567-3.679-1.684-4.969q-1.702-1.909-4.413-1.91c-1.807 0-3.314.638-4.43 1.893-1.134 1.255-1.701 2.9-1.701 4.916 0 2.015.567 3.66 1.701 4.915 1.116 1.256 2.605 1.893 4.43 1.893s3.278-.637 4.412-1.893M64.334 12.43h-3.35V9.724h3.35v-5.18h2.96v5.182h4.802v2.705h-4.803v10.91c0 1.556.567 2.122 2.145 2.122h2.942v2.723h-3.225c-3.491 0-4.82-1.486-4.82-4.81V12.43zM75.973 25.852c-1.63-1.698-2.446-3.98-2.446-6.86 0-2.882.834-5.111 2.516-6.862 1.666-1.75 3.846-2.635 6.522-2.635q3.35 0 5.475 1.75c1.4 1.167 2.304 2.776 2.694 4.846h-3.137c-.567-2.475-2.374-3.943-5.068-3.943q-2.658 0-4.307 1.91-1.647 1.908-1.648 4.933c0 2.017.55 3.643 1.648 4.899 1.1 1.255 2.535 1.873 4.307 1.873 2.622 0 4.448-1.467 5.032-3.872h3.171c-.371 2.016-1.275 3.608-2.71 4.757q-2.18 1.75-5.53 1.75c-2.71 0-4.89-.848-6.52-2.546z"/><path fill="#000" d="M109.441 12.023c1.648 1.68 2.48 3.997 2.48 6.932s-.833 5.058-2.499 6.808c-1.684 1.751-3.81 2.636-6.398 2.636-2.995 0-5.157-1.186-6.344-3.042v10.08h-2.977V9.724h2.57l.407 2.953c1.542-2.121 3.668-3.183 6.344-3.183s4.767.848 6.415 2.529zm-2.251 11.848c1.116-1.255 1.684-2.9 1.684-4.916 0-2.015-.566-3.66-1.684-4.915-1.135-1.255-2.622-1.892-4.448-1.892s-3.278.618-4.395 1.873c-1.135 1.256-1.702 2.883-1.702 4.863s.567 3.679 1.702 4.951c1.116 1.291 2.587 1.927 4.395 1.927s3.313-.637 4.448-1.893zM132.348 25.463v2.722H130.7c-2.357 0-3.278-.972-3.331-2.864-1.436 2.051-3.509 3.078-6.203 3.078-2.055 0-3.704-.479-4.945-1.45-1.258-.972-1.877-2.282-1.877-3.944 0-3.696 2.605-5.747 7.442-5.747h5.441v-1.273c0-2.405-1.701-3.837-4.608-3.837-2.569 0-4.376 1.22-4.731 3.111h-2.959c.231-1.82 1.029-3.236 2.41-4.244 1.383-1.007 3.19-1.52 5.422-1.52 4.75 0 7.442 2.37 7.442 6.666v8.082c0 .938.319 1.22 1.188 1.22zm-5.121-5.712h-5.742c-2.747 0-4.129 1.027-4.129 3.078 0 1.82 1.595 3.042 4.022 3.042 1.825 0 3.244-.477 4.29-1.433s1.559-2.21 1.559-3.785zM139.003 28.291l-7.23-18.567h3.155l5.706 14.73 5.512-14.73h3.154l-8.524 21.573c-.337.832-.602 1.486-.833 1.927a6 6 0 0 1-.851 1.238c-.691.76-1.489.972-2.783.972h-3.544v-2.722h2.641c1.134 0 1.701-.265 2.055-.814.159-.264.372-.725.639-1.36z"/><path fill="#01b1e9" d="M30.377 24.53h-7.424V12.98l7.424-2.84zM10.595 32.854 0 26.75V9.25l10.595-6.103zM15.185 35.5l-.189-.11v-8.023h14.306zM15.19.5 15 .609l-.016 7.674h13.714z"/></svg>
